X:1
T:Stainforth, CM
T:Stainforth, CM
T:J. Conder Nattrass, before 1913
T:Public Domain Courtesy of the Cyber Hymnal™
C:J. Conder Nattrass, before 1913
Z:Public Domain
Z:Courtesy of the Cyber Hymnal™
%%score ( 1 2 ) ( 3 4 )
L:1/8
Q:1/4=110
M:4/4
K:Eb
V:1 treble 
V:2 treble 
V:3 bass 
V:4 bass 
V:1
 B2 | G2 B2 E2 [EF]2 | [EG]2 [DF]2 [EB]2 (cd) | [Ge]2 [Fd]2 [Ec]2 [EA]2 | [DF]6 [DF]2 | %5
 [EB]2 [AB]2 [GB]2 [F=B]2 | [=Ec]2 [EG]2 [FA]2 [FA]2 | [EG]2 [DB]2 [CE]2 [DF]2 | E6 |] %9
V:2
 B2 | G2 B2 E2 x2 | x6 A2 | x8 | x8 | x8 | x8 | x8 | E6 |] %9
V:3
 B,2 | G,2 B,2 E,2 [A,,C]2 | [B,,B,]2 [A,B,]2 [G,B,]2 [F,B,]2 | [E,B,]2 [G,=B,]2 [A,C]2 [A,,C]2 | %4
 [B,,B,]6 [A,B,]2 | [G,B,]2 (CD) [E,E]2 [D,G,]2 | [C,G,]2 [C,C]2 [F,C]2 [D,B,]2 | %7
 [E,B,]2 [G,,B,]2 [C,G,]2 [B,,A,]2 | [E,G,]6 |] %9
V:4
 B,2 | G,2 B,2 E,2 x2 | x8 | x8 | x8 | x2 F,2 x4 | x8 | x8 | x6 |] %9

